X:14
T: Dixie Hoedown
C: Jesse McReynolds
S: MandoZine TablEdit Archives
Z: TablEdited by Mike Stangeland for MandoZine
L: 1/8
Q: 460
M: 4/4
K: G
 z6 dc |: "G"BA Bc BA GF | "C"EC EG c2 dc | "G"BA Bc BA GB | "D"AG EF D2 dc |
 "G"BA Bc BA GF | "C"EC EG c2 dc | "G"Bd BG "D"Ac AF |1 G"G"F GA G2 dc :|2 G"G"F GA GA Bd |
 |: "G"gf ga ba ge | "Bm"fe fg ag fd | "C"ec ef ge ce | "G"d^c de d2 AB |
 "D"cB cd cB AB | cB AG FE DE | FG AB cA FA |1 G"G"F GA BG Bd :|2 G"G"F GA G4 ||
